X:159
T:Believe Me If All Those Endearing Young Charms
T:My Lodging is on the Cold Ground
Z:Jack Campin, http://www.campin.me.uk/
F:Jack Campin's Nine-Note Tunebook
% last edit 26-02-2013
N:originally Northumbrian
M:6/8
L:1/8
Q:3/8=50
K:D
F/E/|D>ED DFA|GBd d2c/B/|A>GF EDE |F3- F2
F/E/|D>ED DFA|GBd d2c/B/|AdF  E>DE|D3- D2:|
A/G/|FAd  d2A|BGd d2c/B/|A>GF EDE |F3- F2
F/E/|D>ED DFA|GBd d2c/B/|AdF  E>DE|D3- D2:|

